!!!OTL: Tagelied
!!!ARE: Europa, Mitteleuropa, Deutschland
!!!SCT: A0105
!!!YEM: Copyright 1995, estate of Helmut Schaffrath.
**kern
*ICvox
*Ivox
*M4/2
*k[]
*C:
{1c
2A
2B
=1
1c
2r
2c
=2
2d
2d
1c
=3
2r}
{2c
2e
2d
=4
1g
2f
[2e
=5
2e]
4d
4c
1d
=6
0c}
=7
{1c
2A
2B
=8
1c
2r
2c
=9
2d
2d
1c
=10
2r}
{2c
2e
2d
=11
1g
2f
[2e
=12
2e]
4d
4c
1d
=13
0c}
=14
{1r
1e
=15
2d
2d
1c
=16
2B
2c
1A
=17
1G
2r
2G
=18
2A
2B
1c}
=19
{2r
2c
2e
2d
=20
1g
2f
[2e
=21
2e]
4d
4c
1d
=22
0c}
==
!!!AGN: Romanze, Ballade, Lied
!! Forster III 1549 No. 6.
!!!ONB: ESAC (Essen Associative Code) Database: ALTDEU
!!!AMT: simple quadruple
!!!AIN: vox
!!!EED: Helmut Schaffrath
!!!EEV: 1.0
*-
